packages/ui-icons/svg/Line/bullet-list-square.svg

<svg viewBox="0 0 1920 1920" xmlns="http://www.w3.org/2000/svg">
    <path d="M0 560h320V240H0v320Zm560-100.059h1360v-120H560v120ZM0 1120h320V800H0v320Zm560-99.058h1360V900.941H560v120.001ZM0 1680h320v-320H0v320Zm560-99.059h1360v-120H560v120Z" fill-rule="evenodd"/>
</svg>

<svg viewBox="0 0 1920 1920" version="1.1" xmlns="http://www.w3.org/2000/svg">
    <path d="M0,560 L320,560 L320,240 L0,240 L0,560 Z M560,459.941 L1920,459.941 L1920,339.941 L560,339.941 L560,459.941 Z M0,1120 L320,1120 L320,800 L0,800 L0,1120 Z M560,1020.942 L1920,1020.942 L1920,900.941 L560,900.941 L560,1020.942 Z M0,1680 L320,1680 L320,1360 L0,1360 L0,1680 Z M560,1580.941 L1920,1580.941 L1920,1460.941 L560,1460.941 L560,1580.941 Z" stroke="none" stroke-width="1" fill-rule="evenodd"/>
</svg>
